X:2034
L:1/8
M:6/8
K:Bmin
|:"Bm" Bfe dcd |"A" Bcd e2 d |"Bm" Bcd AFA |"F#m" (3ABA F E2 F |"G" ABd ede |"F#m" faf ede | 
"A" fed fgf |"A" edc"Bm" B3 :|

